Origami/64x64/apps/gramps.svg

<svg width="64" height="64" version="1.1" viewBox="0 0 64 64" xmlns="http://www.w3.org/2000/svg">
 <path d="m4.0000004 56.200069v1.999971c0 1.549978 1.2495821 2.79996 2.80076 2.79996h50.39928c1.549977 0 2.79996-1.249982 2.79996-2.79996v-1.999971c0 1.549977-1.249983 2.79996-2.79996 2.79996h-50.39928c-1.5503779 0-2.79996-1.249983-2.79996-2.79996z" style="opacity:.2"/>
 <rect transform="matrix(0,-1,-1,0,0,0)" x="-60" y="-60" width="55.999" height="55.999" rx="2.8" ry="2.8" style="fill:#ac8a78"/>
 <path d="m20.999757 30.000458v-10.999843h23.999657v10.999843" style="fill:none;stroke-width:1.9999714;stroke:#494949"/>
 <path d="m26.999672 44.000257v-12.999814h23.999656v12.999814" style="fill:none;stroke-width:1.9999714;stroke:#494949"/>
 <path d="m14.999843 44.000257v-12.999814h23.999657v12.999814" style="fill:none;stroke-width:1.9999714;stroke:#494949"/>
 <g transform="matrix(1.9999714,0,0,1.9999714,5.760572e-5,1.0006864)" style="opacity:.2">
  <rect x="6" y="20" width="3" height="4"/>
  <rect x="12" y="20" width="3" height="4"/>
  <rect x="18" y="20" width="3" height="4"/>
  <rect x="15" y="7" width="3" height="4"/>
  <rect x="9" y="13" width="3" height="4"/>
  <rect x="21" y="13" width="3" height="4"/>
  <rect x="24" y="20" width="3" height="4"/>
 </g>
 <g transform="matrix(1.9999714,0,0,1.9999714,5.760572e-5,8.866e-4)" style="fill:#ffffff">
  <rect x="6" y="20" width="3" height="4"/>
  <rect x="12" y="20" width="3" height="4"/>
  <rect x="18" y="20" width="3" height="4"/>
  <rect x="15" y="7" width="3" height="4"/>
  <rect x="9" y="13" width="3" height="4"/>
  <rect x="21" y="13" width="3" height="4"/>
  <rect x="24" y="20" width="3" height="4"/>
 </g>
 <path d="m6.8007812 4c-1.5511778 0-2.8007812 1.2496034-2.8007812 2.8007812v1.0019532c0-1.5511778 1.2496034-2.8007813 2.8007812-2.8007813h50.398438c1.549977 0 2.800781 1.2496035 2.800781 2.8007813v-1.0019532c0-1.5511777-1.250804-2.8007812-2.800781-2.8007812h-50.398438z" style="fill:#ffffff;opacity:.2"/>
</svg>

<svg xmlns="http://www.w3.org/2000/svg" width="64" height="64" version="1.1" viewBox="0 0 64 64">
 <path style="opacity:0.2" d="m 4.0000004,56.200069 0,1.999971 c 0,1.549978 1.2495821,2.79996 2.80076,2.79996 L 57.20004,61 C 58.750017,61 60,59.750018 60,58.20004 l 0,-1.999971 c 0,1.549977 -1.249983,2.79996 -2.79996,2.79996 l -50.3992796,0 c -1.5503779,0 -2.79996,-1.249983 -2.79996,-2.79996 z"/>
 <rect style="fill:#ac8a78" width="55.999" height="55.999" x="-60" y="-60" rx="2.8" ry="2.8" transform="matrix(0,-1,-1,0,0,0)"/>
 <path style="fill:none;stroke:#494949;stroke-width:1.99997139" d="m 20.999757,30.000458 0,-10.999843 23.999657,0 0,10.999843"/>
 <path style="fill:none;stroke:#494949;stroke-width:1.99997139" d="m 26.999672,44.000257 0,-12.999814 23.999656,0 0,12.999814"/>
 <path style="fill:none;stroke:#494949;stroke-width:1.99997139" d="m 14.999843,44.000257 0,-12.999814 23.999657,0 0,12.999814"/>
 <g style="opacity:0.2" transform="matrix(1.9999714,0,0,1.9999714,5.760572e-5,1.0006864)">
  <rect width="3" height="4" x="6" y="20"/>
  <rect width="3" height="4" x="12" y="20"/>
  <rect width="3" height="4" x="18" y="20"/>
  <rect width="3" height="4" x="15" y="7"/>
  <rect width="3" height="4" x="9" y="13"/>
  <rect width="3" height="4" x="21" y="13"/>
  <rect width="3" height="4" x="24" y="20"/>
 </g>
 <g style="fill:#ffffff" transform="matrix(1.9999714,0,0,1.9999714,5.760572e-5,8.866e-4)">
  <rect width="3" height="4" x="6" y="20"/>
  <rect width="3" height="4" x="12" y="20"/>
  <rect width="3" height="4" x="18" y="20"/>
  <rect width="3" height="4" x="15" y="7"/>
  <rect width="3" height="4" x="9" y="13"/>
  <rect width="3" height="4" x="21" y="13"/>
  <rect width="3" height="4" x="24" y="20"/>
 </g>
 <path style="opacity:0.2;fill:#ffffff" d="M 6.8007812 4 C 5.2496034 4 4 5.2496034 4 6.8007812 L 4 7.8027344 C 4 6.2515566 5.2496034 5.0019531 6.8007812 5.0019531 L 57.199219 5.0019531 C 58.749196 5.0019531 60 6.2515566 60 7.8027344 L 60 6.8007812 C 60 5.2496035 58.749196 4 57.199219 4 L 6.8007812 4 z"/>
</svg>
